X: 10502
M: 2/4
L: 1/16
K: D
de |\
f2d2 ABAF | G2E2E2 GF | FDFA dAFD | A2A,2A,2 de |\
f2d2 ABAF | G2E2E2 de | f2df edeg | f2d2d2 :|
|: AG |\
d2fe d2fd | e4 gfed | fgaf bgec | d2d2d2 :|


